x-pack/solutions/search/plugins/serverless_search/public/assets/java.svg

<svg width="128" height="128" viewBox="0 0 128 128" fill="none" xmlns="http://www.w3.org/2000/svg">
<g clip-path="url(#clip0_693_142118)">
<path d="M47.603 98.9872C27.9231 104.485 59.5769 115.844 84.6362 105.108C80.5314 103.512 77.5874 101.672 77.5874 101.672C66.4134 103.784 61.2299 103.95 51.0864 102.791C42.7148 101.833 47.603 98.9872 47.603 98.9872ZM81.6358 88.2613C66.8246 91.1109 58.2695 91.0196 47.4338 89.9019C39.0551 89.0354 44.5401 84.9748 44.5401 84.9748C22.8657 92.1691 56.6062 100.333 86.8993 91.4718C83.6795 90.3377 81.6358 88.2613 81.6358 88.2613ZM93.2425 26.1463C93.2436 26.1463 49.4252 37.0865 70.352 61.2024C76.5292 68.3137 68.7319 74.7072 68.7319 74.7072C68.7319 74.7072 84.4095 66.6156 77.2111 56.4783C70.4853 47.029 65.3295 42.3346 93.2425 26.1463ZM103.495 109.353C103.495 109.353 107.113 112.337 99.5079 114.643C85.0474 119.024 39.3094 120.345 26.6054 114.819C22.0423 112.831 30.6036 110.076 33.2974 109.495C36.106 108.887 37.7097 108.997 37.7097 108.997C32.6319 105.422 4.88289 116.021 23.6184 119.062C74.706 127.343 116.744 115.332 103.495 109.353ZM85.9364 78.249C88.3923 76.5735 91.7844 75.1184 91.7844 75.1184C91.7844 75.1184 82.1208 76.8462 72.4931 77.6553C60.7069 78.6438 48.0645 78.8386 41.7181 77.9896C26.6936 75.9808 49.9553 70.4548 49.9553 70.4548C49.9553 70.4548 40.9193 69.8436 29.8119 75.2169C16.6742 81.5693 62.3086 84.4651 85.9364 78.249ZM91.688 93.7791C91.5773 94.0764 91.2081 94.4107 91.2081 94.4107C123.276 85.9807 111.486 64.695 96.1527 70.0826C94.8073 70.5583 94.1018 71.6648 94.1018 71.6648C94.1018 71.6648 94.9519 71.3223 96.8479 70.9265C104.599 69.3114 115.704 81.3027 91.688 93.7791ZM64.5881 70.223C59.8568 59.5289 43.8131 50.1729 64.5953 33.76C90.5088 13.3059 77.2121 3.05176e-05 77.2121 3.05176e-05C82.5751 21.1319 58.292 27.5152 49.5267 40.6755C43.5577 49.6428 52.4563 59.2787 64.5881 70.223ZM92.5555 123.287C72.8807 126.99 48.612 126.559 34.2223 124.183C34.2223 124.183 37.1693 126.623 52.3169 127.599C75.3643 129.072 110.766 126.778 111.603 115.872C111.604 115.872 109.993 120.006 92.5555 123.287Z" fill="#EA2D2E"/>
</g>
<defs>
<clipPath id="clip0_693_142118">
<rect width="128" height="128" fill="white"/>
</clipPath>
</defs>
</svg>

<svg xmlns="http://www.w3.org/2000/svg" width="128" height="128" fill="none"><g clip-path="url(#a)"><path fill="#EA2D2E" d="M47.603 98.987c-19.68 5.498 11.974 16.857 37.033 6.121-4.105-1.596-7.049-3.436-7.049-3.436-11.174 2.112-16.357 2.278-26.5 1.119-8.372-.958-3.484-3.804-3.484-3.804m34.033-10.726c-14.811 2.85-23.366 2.759-34.202 1.64-8.379-.866-2.894-4.926-2.894-4.926-21.674 7.194 12.066 15.358 42.36 6.497-3.22-1.134-5.264-3.21-5.264-3.21m11.607-62.115s-43.818 10.94-22.891 35.056c6.177 7.112-1.62 13.505-1.62 13.505s15.677-8.091 8.48-18.229c-6.727-9.449-11.883-14.143 16.03-30.332m10.252 83.207s3.618 2.984-3.987 5.29c-14.46 4.381-60.199 5.702-72.903.176-4.563-1.988 3.999-4.743 6.692-5.324 2.809-.608 4.413-.498 4.413-.498-5.078-3.575-32.827 7.024-14.092 10.065 51.088 8.281 93.126-3.73 79.877-9.709M85.936 78.249c2.456-1.675 5.848-3.13 5.848-3.13s-9.663 1.727-19.29 2.536c-11.787.989-24.43 1.184-30.776.335-15.024-2.01 8.237-7.535 8.237-7.535s-9.036-.611-20.143 4.762c-13.138 6.352 32.497 9.248 56.124 3.032m5.752 15.53c-.11.297-.48.632-.48.632 32.068-8.43 20.278-29.716 4.945-24.328-1.346.475-2.051 1.582-2.051 1.582s.85-.343 2.746-.739c7.751-1.615 18.856 10.377-5.16 22.853m-27.1-23.556c-4.731-10.694-20.775-20.05.007-36.463C90.51 13.306 77.212 0 77.212 0c5.363 21.132-18.92 27.515-27.685 40.676-5.97 8.967 2.93 18.603 15.061 29.547m27.968 53.064c-19.675 3.703-43.944 3.272-58.334.896 0 0 2.947 2.44 18.095 3.416 23.047 1.473 58.449-.821 59.286-11.727.001 0-1.61 4.134-19.047 7.415"/></g><defs><clipPath id="a"><path fill="#fff" d="M0 0h128v128H0z"/></clipPath></defs></svg>
